svg/u264d.svg

<svg viewBox="0 0 128 128" xmlns="http://www.w3.org/2000/svg">
  <circle cx="64" cy="64" r="60" fill="#689F38"/>
  <circle cx="60.1" cy="63.1" r="56.1" fill="#9CCC65"/>
  <path d="M24,29.7c4.5-7.1,14.1-13,24.1-14.8c2.5-0.4,5-0.6,7.1,0.2 c1.6,0.6,2.9,2.1,2,3.8c-0.7,1.4-2.6,2-4.1,2.5c-9.3,3-17.9,6.4-23.1,14.3c-2,3-4.9,14.4-8.6,12.3C17.5,45.7,18.3,38.5,24,29.7z" opacity="0.3" fill="#BFE094" enable-background="new "/>
  <path d="M91.4,96.7c-3.5-1-7-3.9-8.5-8.1c-0.1-0.4-0.1-0.8,0.2-1.1c11.4-11.1,20-25.4,19.8-35.8 c-0.1-6.2-3.2-10.8-8.7-12.8c-4.8-1.8-9-1.2-12.4,0.3c-0.6,0.3-1.2-0.1-1.4-0.7c-1.6-7.2-8-12.5-15.6-12.5c-4.4,0-8.4,1.8-11.3,4.7 c-0.4,0.4-1,0.4-1.4,0c-3-3-7.2-4.9-11.8-4.7c-8.5,0.3-15.5,7.9-15.5,16.4v43.4c0,2.1,1.5,3.9,3.6,4.2c2.4,0.2,4.4-1.6,4.4-4V42.3 c0-4.3,3.2-8,7.5-8.3c4.7-0.3,8.5,3.4,8.5,8v43.8c0,2.1,1.5,3.9,3.6,4.2c2.4,0.2,4.4-1.6,4.4-4V42.3c0-4.3,3.2-8,7.5-8.3 c4.7-0.3,8.6,3.4,8.6,8c0,0-0.1,38.8,0.7,42.8c0.1,0.4-0.1,0.7-0.3,1c-4.3,3.6-9,6.5-13.7,8.4c-1.9,0.8-3.1,2.9-2.5,4.9 c0.5,1.8,2.1,2.8,3.8,2.8c0.5,0,1-0.1,1.5-0.3c4.4-1.8,8.8-4.4,13.1-7.6c0.5-0.4,1.2-0.2,1.5,0.3c1.9,4.2,6,9,12.5,10.4 c0.3,0.1,0.5,0.1,0.8,0.1c2.2,0,4.7-2.3,4.5-4.8C94.6,98.4,93.1,97.1,91.4,96.7L91.4,96.7z M95.9,53.2c-1.6,9-8.9,19.3-14.9,24.9 c-0.5-5.5-1.5-24.4,0.2-28.4C85.8,39.9,97.3,45.5,95.9,53.2z" fill="#FAFAFA"/>
  <path d="M24,29.7c4.5-7.1,14.1-13,24.1-14.8c2.5-0.4,5-0.6,7.1,0.2 c1.6,0.6,2.9,2.1,2,3.8c-0.7,1.4-2.6,2-4.1,2.5c-9.3,3-17.9,6.4-23.1,14.3c-2,3-4.9,14.4-8.6,12.3C17.5,45.7,18.3,38.5,24,29.7z" opacity="0.65" fill="#BFE094" enable-background="new "/>
</svg>

<svg viewBox="0 0 128 128" xmlns="http://www.w3.org/2000/svg">
  <defs/>
  <path d="M124,64 A60 60 0 1 1 4,64 A60 60 0 1 1 124,64 Z" fill="#689F38"/>
  <path d="M116.2,63.1 A56.1 56.1 0 1 1 4,63.1 A56.1 56.1 0 1 1 116.2,63.1 Z" fill="#9CCC65"/>
  <path d="M24,29.7 C28.5,22.6 38.1,16.7 48.1,14.9 C50.6,14.5 53.1,14.3 55.2,15.1 C56.8,15.7 58.1,17.2 57.2,18.9 C56.5,20.3 54.6,20.9 53.1,21.4 C43.8,24.4 35.2,27.8 30,35.7 C28,38.7 25.1,50.1 21.4,48 C17.5,45.7 18.3,38.5 24,29.7 Z" fill="#BFE094" opacity="0.3"/>
  <path d="M91.4,96.7 C87.9,95.7 84.4,92.8 82.9,88.6 C82.8,88.2 82.8,87.8 83.1,87.5 C94.5,76.4 103.1,62.1 102.9,51.7 C102.8,45.5 99.7,40.9 94.2,38.9 C89.4,37.1 85.2,37.7 81.8,39.2 C81.2,39.5 80.6,39.1 80.4,38.5 C78.8,31.3 72.4,26 64.8,26 C60.4,26 56.4,27.8 53.5,30.7 C53.1,31.1 52.5,31.1 52.1,30.7 C49.1,27.7 44.9,25.8 40.3,26 C31.8,26.3 24.8,33.9 24.8,42.4 L24.8,85.8 C24.8,87.9 26.3,89.7 28.4,90 C30.8,90.2 32.8,88.4 32.8,86 L32.8,42.3 C32.8,38 36,34.3 40.3,34 C45,33.7 48.8,37.4 48.8,42 L48.8,85.8 C48.8,87.9 50.3,89.7 52.4,90 C54.8,90.2 56.8,88.4 56.8,86 L56.8,42.3 C56.8,38 60,34.3 64.3,34 C69,33.7 72.9,37.4 72.9,42 C72.9,42 72.8,80.8 73.6,84.8 C73.7,85.2 73.5,85.5 73.3,85.8 C69,89.4 64.3,92.3 59.6,94.2 C57.7,95 56.5,97.1 57.1,99.1 C57.6,100.9 59.2,101.9 60.9,101.9 C61.4,101.9 61.9,101.8 62.4,101.6 C66.8,99.8 71.2,97.2 75.5,94 C76,93.6 76.7,93.8 77,94.3 C78.9,98.5 83,103.3 89.5,104.7 C89.8,104.8 90,104.8 90.3,104.8 C92.5,104.8 95,102.5 94.8,100 C94.6,98.4 93.1,97.1 91.4,96.7 L91.4,96.7 Z M95.9,53.2 C94.3,62.2 87,72.5 81,78.1 C80.5,72.6 79.5,53.7 81.2,49.7 C85.8,39.9 97.3,45.5 95.9,53.2 Z" fill="#FAFAFA"/>
  <path d="M24,29.7 C28.5,22.6 38.1,16.7 48.1,14.9 C50.6,14.5 53.1,14.3 55.2,15.1 C56.8,15.7 58.1,17.2 57.2,18.9 C56.5,20.3 54.6,20.9 53.1,21.4 C43.8,24.4 35.2,27.8 30,35.7 C28,38.7 25.1,50.1 21.4,48 C17.5,45.7 18.3,38.5 24,29.7 Z" fill="#BFE094" opacity="0.65"/>
</svg>
